!!!COM: Bach, Johann Sebastian
!!!OTL: 9. Ermuntre dich, mein schwacher Geist
!!!ONM: No. 9
!!!OCL: Erk
!!!SCA: BWV 248.12
!!!YOE: Riemenschneider, Albert
!!!OPR: 371 Harmonized Chorales and 69 Chorale Melodies with Figured Bass
!!!OPT: Bach Chorale Harmonizations
!!!ONB: From the "Christmas Oratorio", Part II, No. 3
**harm	**root	**kern	**kern	**kern	**kern
!	!	!bass	!tenor	!alto	!sprno
*Iorgan	*Iorgan	*Iorgan	*Iorgan	*Iorgan	*Iorgan
*>[A,A,B]	*>[A,A,B]	*>[A,A,B]	*>[A,A,B]	*>[A,A,B]	*>[A,A,B]
*>norep[A,B]	*>norep[A,B]	*>norep[A,B]	*>norep[A,B]	*>norep[A,B]	*>norep[A,B]
*>A	*>A	*>A	*>A	*>A	*>A
*k[f#]	*k[f#]	*k[f#]	*k[f#]	*k[f#]	*k[f#]
*G:	*G:	*G:	*G:	*G:	*G:
*met(C)	*met(C)	*met(C)	*met(C)	*met(C)	*met(C)
*M4/4	*M4/4	*M4/4	*M4/4	*M4/4	*M4/4
*MM60	*MM60	*MM60	*MM60	*MM60	*MM60
I	4GG	8G	4B	4d	4g
.	.	8F#	.	.	.
=1	=1	=1	=1	=1	=1
vi	4EE	4E	8B	4e	4g
.	.	.	[8c	.	.
V7	4DD	4D	8c]	4f#	4a
.	.	.	8d	.	.
I	8GG	4G	8B	8d	8b
V7d/V	8AA	.	8A	8e	8cc#
Vb	4DD	8F#	4A	4f#	4dd
.	.	8G	.	.	.
=2	=2	=2	=2	=2	=2
Vc	4DD	4A	4A	8e	4dd
.	.	.	.	8f#	.
V7/V	4AA	4AA	4A	4g	4cc#
V;	4DD;	4D;	4A;	4f#;	4dd;
Vb/vi	4BB	4D#	8B	4f#	4b
.	.	.	8A	.	.
=3	=3	=3	=3	=3	=3
IVb	8CC	8E	8G	4e	4ccn
viio7	8FF#	8F#	8A	.	.
I	8GG	8G	8B	8d	4b
IV7	8CC	8C	8c	8e	.
V7d	4DD	8c	4dn	4f#	4a
.	.	8B	.	.	.
I	4GG	8A	4d	[4g	4b
.	.	8G	.	.	.
=4	=4	=4	=4	=4	=4
V	2DD	4d	4.d	4g]	2a
.	.	4D	.	4f#	.
.	.	.	8c	.	.
I;	4GG;	4G;	4B;	4d;	4g;
=:|!	=:|!	=:|!	=:|!	=:|!	=:|!
*>B	*>B	*>B	*>B	*>B	*>B
V	4DD	4D	8d	8f#	4a
.	.	.	8e	8g	.
=5	=5	=5	=5	=5	=5
V	8DD	8d	8f#	4.a	4a
iib	8AA	8c	8e	.	.
viiob/ii	4GG#	4B	4d	.	4b
.	.	.	.	8g#	.
ii	4AA	4A	4e	8a	4cc
.	.	.	.	8g#	.
viioD7/vi	4DD#	4D#	4f#	4a	4cc
=6	=6	=6	=6	=6	=6
!!linebreak: 2
vi	4EE	4E	4B	4a	8b
.	.	.	.	.	8a
V/ii	4EE	4E	8e	4g#	4b
.	.	.	8d	.	.
ii;	4AA;	4AA;	4c;	4e;	4a;
vi	8EE	8E	8Gn	8e	4b
V7b/vi	8BB	8F#	8A	8d#	.
=7	=7	=7	=7	=7	=7
vib	4EE	4G	8B	4e	4b
.	.	.	8c	.	.
V7b/ii	4EE	4G#	8d	4e	4b
.	.	.	8e	.	.
ii	4AA	4A	4c	8e	8cc
.	.	.	.	8f#	8dd
viioD7/iii	4AA#	4A#	4c#	8g	4ee
.	.	.	.	8f#	.
=8	=8	=8	=8	=8	=8
iii	4BB	4B	4B	8f#	4ee
.	.	.	.	8g	.
V7/vi	4BB	4BB	4B	4a	4dd#
vi;	4EE;	4E;	4B;	4g;	4ee;
V	4DD	8d	4d	4a	4ff#
.	.	8c	.	.	.
=9	=9	=9	=9	=9	=9
Ib	4GG	8B	4d	8g	4gg
.	.	8A	.	8a	.
I	4GG	8G	4g	[4b	4b
.	.	8F#	.	.	.
IV7b	8CC	8E	8G	8b]	4cc
viio7	8FF#	8F#	8A	[8a	.
vib	4EE	8G	4B	8a]	4b
.	.	8E	.	8g	.
=10	=10	=10	=10	=10	=10
V7b/V	2AA	8C#	8e	2g	2a
.	.	8BB	8d	.	.
.	.	8C#	8e	.	.
.	.	8AA	8c#	.	.
V;	4DD;	4D;	4d;	4f#;	4a;
Ib	4GG	4BB	[4d	8g	4dd
.	.	.	.	8f#	.
=11	=11	=11	=11	=11	=11
IV	4CC	4C	8d]	4e	4ee
.	.	.	8c	.	.
V7	4DD	4D	8c	4f#	4dd
.	.	.	8B	.	.
IV7b	8CC	8E	8B	8g	4cc
viio	8FF#	8F#	8A	8a	.
I	4GG	4G	4G	4d	8b
.	.	.	.	.	8cc
=12	=12	=12	=12	=12	=12
ii7b	4AA	4C	8G	4e	2a
.	.	.	16F#	.	.
.	.	.	16E	.	.
V	4DD	4D	4F#	4d	.
I;	4GG;	4GG;	4B;	4d;	4g;
==	==	==	==	==	==
*-	*-	*-	*-	*-	*-
!!!CDT: 1685/3//-1750/7/28
!!!OCY: Deutschland
!!!AGN: chorale
!!!AST: Baroque
!!!AIN: vox
!!!YOY: 1941
!!!PPP: New York; London
!!!PPR: G. Schirmer
!!!ENC: David Huron
!!!EED: David Huron
!!!YEN: United States of America
!!!YER: 1992
!!!YEC: Copyright 1992 David Huron
!!!YEM: Rights to all derivative electronic formats reserved.
!!!YER: March 20, 1996
!!!AMT: simple quadruple
!!!EEV: 1.1
!!chor2scor: -l 2 -s 0.6 -o %b.pmx
